X:1
T:Do You Hear the People Sing (Les Misérables)
T:for Cello  
T:Claude-Michel Schönberg arr. Kayl Kuo
L:1/8
M:4/4
K:G
V:1 bass nm="Violoncello" snm="Vc."
V:1
!f! z4 z2[Q:1/4=80] E,>D, | C,>D, E,>=F, G,2 (3E,D,C, | B,,>A,, B,,>C, G,,2 (3A,,G,,=F,, | %3
 E,,>G,, C,>E, D,>^C, D,>A,, | C,>B,, B,,>C, D,2 E,>D, | C,>D, E,>=F, G,2 (3E,D,C, | %6
 B,,>A,, B,,>C, G,,2 (3A,,G,,=F,, | E,,>G,, C,>E, (3D,^C,D, =F,>B,, | C,3 z z2 B,,>B,, | %9
 E,>^D, E,>F, G,>F, E,>G, | F,>E, D,>E, F,2 (3z F,G, | A,>G, F,>G, A,>G, F,>A, | %12
 G,>F, E,>F, G,2 z z/ E,/ | (3G,F,E, (3G,F,E, (3G,F,E, (3G,F,G, | A,6 B,>A, | %15
 G,>A, B,>C D2 (3B,A,G, | F,>E, F,>G, D,2 (3E,D,C, | B,,>D, G,>B, A,>^G, A,>E, | %18
 G,>F, F,>G, A,2 B,>A, | G,>A, B,>C D2 (3B,A,G, | F,>E, F,>G, D,2 (3E,D,C, | %21
 B,,>D, G,>B, (3A,^G,A, C>F, | G,3 z z2 B,,>B,, | E,>^D, E,>F, G,>F, E,>G, | %24
 F,>E, D,>E, F,2 (3z F,G, | A,>G, F,>G, A,>G, F,>A, | G,>F, E,>F, G,2 z z/ E,/ | %27
 (3G,F,E, (3G,F,E, (3G,F,E, (3G,F,G, | A,4 z2 B,>A, | G,>A, B,>C D2 (3B,A,G, | %30
 F,>E, F,>G, D,2 (3E,D,C, | B,,>D, G,>B, A,>^G, A,>E, | G,>F, F,>G, A,2 B,>A, | %33
 G,>A, B,>C D2 (3B,A,G, | F,>E, F,>G, D,2 (3E,D,C, | B,,>D, G,>B, (3[A,C][^G,B,][A,C] [CE]>[F,A,] | %36
 G,4 z4 |] %37

